X:1
T:Title
%%score [ ( 1 2 ) ( 3 4 ) ]
L:1/8
Q:1/4=96
M:4/4
K:F
V:1 treble nm="MusicXML Part"
V:2 treble 
V:3 bass nm="MusicXML Part"
V:4 bass 
V:1
 [Fc]4 [Fc]2 [EA]2 | [DF]2 [CA]2 [Ec]2 [Fc]2 | [Fd]2 [Fd]2 [Fc]4 | [Ec]4 [Ac]2 [GB]2 | %4
w: 'Twas in the|year that King Uz-|zi- ah died,|A vi- sion|
 [Ec]2 [DF]2 [FB]2 [FA]2 | G2 G2 F4 | [Ac]4 [Ac]2 [Gc]2 | [Ff]2 [Ff]2 [Ff]2 [Ac]2 | %8
w: by I- sai- ah|was a- spied:|A lof- ty|throne the Lord was|
 [Bd]2 [Gc]2 [FA]4 | [FA]4 [DB]2 [Gc]2 | A2 B2 A2 F2 | G2 G2 !fermata!F4 | [CF]4 [FA]2 [CG]2 | %13
w: set there- on;|And with his|glo- ry all the|tem- ple shone.|Bright se- ra-|
 [FA]2 [FB]2 [Ec]2 [Gc]2 | [FA]2 [FB]2 [Ec]4 | [Ff]4 [Af]2 [Ge]2 | [Fd]2 [Gc]2 [Ac]2 [GB]2 | %17
w: phim were stand- ing|round a- bout;|Six wings had|ev- ery of that|
 [Gc]2 [GB]2 [^FA]4 | [DG]4 [=FA]2 [FB]2 | [Ec]2 [Fc]2 [Fd]2 [Fc]2 | [Dd]2 [Ge]2 [Af]4 | %21
w: choir de- vout;|With twain he|awe- some veil'd his|face and so|
 [Ac]4 [Ac]2 [FB]2 | [FA]2 [DB]2 [Cc]2 [DF]2 | A2 G2 F4 | [FA]4 [DB]2 [Fc]2 | %25
w: With twain he|dread- ful veil'd his|feet be- low.|With twain did|
 [Fd]2 [Fc]2 [Gc]2 [Fd]2 | [Ge]2 [Gd]2 [Ec]4 | [Ff]4 [Ae]2 [Fd]2 | [Bg]2 [Af]2 [Ge]2 [Ac]2 | %29
w: he now hi- ther,|thi- ther fly:|And thus a-|loud did one to|
 [Fd]2 [Ge]2 [Af]4 | [Af]4 [Ge]2 [Fd]2 | [Ec]2 [Fd]2 [Ge]2 [Ac]2 | [FB]2 [Gc]2 [FA]4 | %33
w: o- ther cry:|Ho- ly is|God, the Lord of|Sa- ba- oth,|
 [Af]4 [Ge]2 [Fd]2 | [Ec]2 [Fd]2 [Ge]2 [Ac]2 | [FB]2 [Gc]2 [FA]4 | [Af]4 [Ae]2 [Fd]2 | %37
w: Ho- ly is|God, the Lord of|Sa- ba- oth,|Ho- ly is|
 [Fc]2 [Fd]2 [Ee]2 [Ac]2 | [FB]2 [Gc]2 [FA]4 | [Fd]4 [Fc]2 [GB]2 | cc F2 B2 A2 | %41
w: God, the Lord of|Sa- ba- oth,|Full of His|glo- ry are earth and|
 G2 G2 !fermata!F4 | [CF]4 [Gc]2 [Ec]2 | [FA]2 [FB]2 [Fc]2 [Fd]2 | [Fd]2 [Ec]2 [Fc]4 | %45
w: hea- ven both.|And at their|cry the lin- tels|moved a- pace,|
 [Ec]4 [FB]2 [FA]2 | [DB]2 [EG]2 [FA]2 [DF]2 | [CF]2 [CE]2 [CF]4 |] %48
w: And clouds of|in- cense fill'd the|Ho- ly Place.|
V:2
 x8 | x8 | x8 | x8 | x8 | F2 E2 F4 | x8 | x8 | x8 | x8 | F2 F2 E2 F2 | F2 E2 F4 | x8 | x8 | x8 | %15
 x8 | x8 | x8 | x8 | x8 | x8 | x8 | x8 | F2 E2 F4 | x8 | x8 | x8 | x8 | x8 | x8 | x8 | x8 | x8 | %33
 x8 | x8 | x8 | x8 | x8 | x8 | x8 | EE F2 F2 F2 | F2 E2 F4 | x8 | x8 | x8 | x8 | x8 | x8 |] %48
V:3
 [F,A,]4 [F,,A,]2 [A,,C]2 | A,2 F,2 G,2 A,2 | [B,,B,]2 [B,,B,]2 [F,A,]4 | [A,C]4 [F,F]2 [G,D]2 | %4
 [C,C]2 [D,A,]2 [B,,D]2 [F,C]2 | [C,C]2 [C,G,]2 [F,,A,]4 | [F,C]4 [A,F]2 [CE]2 | %7
 [A,C]2 [B,D]2 [A,C]2 [F,F]2 | [B,,F]2 [C,E]2 [F,C]4 | [D,D]4 [G,B,]2 [E,G,]2 | %10
 [F,C]2 [B,,D]2 [C,C]2 [D,A,]2 | [C,C]2 [C,C]2 [F,,A,]4 | [F,A,]4 [D,D]2 [E,G,]2 | %13
 [F,C]2 [D,D]2 [C,G,]2 [E,C]2 | [F,C]2 [D,D]2 [C,G,]4 | [B,,D]4 [F,C]2 [C,C]2 | %16
 [D,A,]2 [E,C]2 [F,F]2 [G,D]2 | [C,E]2 [G,D]2 [D,D]4 | [G,B,]4 [F,C]2 [D,D]2 | G,2 A,2 B,2 C2 | %20
 [G,B,]2 [G,B,]2 [F,C]4 | [F,F]4 [F,F]2 [B,,D]2 | [F,C]2 [G,B,]2 [E,G,]2 [D,A,]2 | %23
 [A,,C]2 [C,C]2 [F,,A,]4 | [D,D]4 [G,B,]2 [F,A,]2 | B,2 C2 C2 A,2 | [C,C]2 [G,=B,]2 [C,C]4 | %27
 [D,A,]4 [A,C]2 [B,D]2 | [G,D]2 [A,C]2 [CE]2 [F,F]2 | [D,A,]2 [C,C]2 [F,C]4 | %30
 [F,C]4 [C,C]2 [D,A,]2 | [A,,A,]2 [D,A,]2 [C,C]2 [F,C]2 | [D,D]2 [E,C]2 [F,C]4 | %33
 [F,C]4 [C,C]2 [D,A,]2 | [A,,A,]2 [D,A,]2 [C,C]2 [F,C]2 | [D,D]2 [E,C]2 [F,C]4 | %36
 [D,D]4 [A,^C]2 [B,D]2 | [F,A,]2 [D,=B,]2 [C,C]2 [F,C]2 | [D,D]2 [E,C]2 [F,C]4 | B,4 C2 D2 | %40
 [C,C][C,C] [D,A,]2 [B,,D]2 [F,C]2 | [C,C]2 [C,G,]2 [F,,A,]4 | [F,A,]4 [E,G,]2 [C,C]2 | %43
 [F,C]2 [D,D]2 [A,,C]2 [B,,B,]2 | [B,,B,]2 [C,G,]2 [F,A,]4 | [C,G,]4 [D,D]2 [F,C]2 | %46
 [G,B,]2 [C,C]2 [F,C]2 [B,,B,]2 | [C,G,]2 [C,G,]2 [F,,A,]4 |] %48
V:4
 x8 | D,2 F,2 C,2 F,2 | x8 | x8 | x8 | x8 | x8 | x8 | x8 | x8 | x8 | x8 | x8 | x8 | x8 | x8 | x8 | %17
 x8 | x8 | C,2 F,2 B,2 A,2 | x8 | x8 | x8 | x8 | x8 | B,2 A,2 E,2 D,2 | x8 | x8 | x8 | x8 | x8 | %31
 x8 | x8 | x8 | x8 | x8 | x8 | x8 | x8 | B,4 A,2 G,2 | x8 | x8 | x8 | x8 | x8 | x8 | x8 | x8 |] %48

